X:19141
T:Xota de La Marina (MG 90)
T:Jota de La Marina (MG 90)
R:Xota
C:Versin de Jos M. Fernndez. "Guti"
S:Msica Tradicional Asturiana, (C) Tello & Tito. Asturies, 2001.
S:http://pagina.de/MusTradAst <telloytito@asturies.org>
O:Valds
A:Asturies
Z:Mtodu de Gaita 90
E:Comp.
M:3/8
L:1/8
Q:3/8=80
K:C
E/F/E/F/
|: G E/F/E/F/|G E/F/E/F/|G {GAG}F{G}E|D B,/C/D/E/|
|{GAG}F D/E/D/E/|{GAG}F D/E/D/E/|{GAG}F{G}E D|[1 C E/F/E/F/ :|[2 CEG|
|: cB~A|GEG|{GAG}FED|[1 CEG :|[2 C3|
|: {A}G{C}G{C}G|{C}G~AG|~A G/F/ E-|E3|
|{A}G{C}G{C}G|{C}G{C}Gc|~B A/G/ {GAG}F-|F3|
|{GAGAG}D>EF|GAG|c2 B-|BAG|
|B A/G/F-|F G2|[1 ~A G/F/ E-|E3 :|[2 ~A G/F/ E-|E E/F/E/F/|
